icons/desktop/16/svg/social-tracker-slash-16.svg

<svg width="16" height="16" viewBox="0 0 16 16" fill="none" xmlns="http://www.w3.org/2000/svg">
<path d="M0.219792 0.21967C0.512685 -0.0732233 0.987446 -0.0732233 1.28034 0.21967L15.7803 14.7197C16.0732 15.0126 16.0732 15.4873 15.7803 15.7802C15.4874 16.0731 15.0127 16.0731 14.7198 15.7802L10.8975 11.958C10.5905 11.941 10.2912 11.9207 10.0001 11.8955V14.8388C10.0001 15.4808 9.47996 16.0009 8.83796 16.0009C8.33707 16.0009 7.89347 15.6809 7.73542 15.206L7.0821 13.247C7.02714 13.0832 6.95237 12.927 6.85749 12.7831L5.25007 10.331V6.31049L4.00007 5.06049V9.96283C4.00007 10.4698 3.62213 10.8899 3.12018 10.958C2.93018 10.984 2.72307 10.9999 2.50007 10.9999C2.32614 10.9999 2.10926 10.991 1.86139 10.956C1.36939 10.887 1.00007 10.4598 1.00007 9.96283V3.03705C1.00007 2.76775 1.10706 2.52321 1.28229 2.34272L0.219792 1.28022C-0.0731012 0.987324 -0.0731012 0.512563 0.219792 0.21967Z" fill="black"/>
<path d="M9.21589 2.99994C10.3399 3.00394 11.3951 3.05747 12.3731 3.14447C13.0241 3.20248 13.6105 3.55218 13.9415 4.11518C14.3433 4.79897 14.7477 5.6009 15.1036 6.51752C15.5346 7.62852 15.8038 8.68104 15.9698 9.62104C16.1437 10.605 15.5531 11.511 14.6592 11.829L5.97175 3.14154C6.9817 3.05555 8.05195 2.99595 9.21589 2.99994Z" fill="black"/>
</svg>

<!-- This Source Code Form is subject to the terms of the Mozilla Public
   - License, v. 2.0. If a copy of the MPL was not distributed with this
   - file, You can obtain one at http://mozilla.org/MPL/2.0/. -->
<svg xmlns="http://www.w3.org/2000/svg" width="16" height="16" fill="context-fill" fill-opacity="context-fill-opacity" viewBox="0 0 16 16">
    <path d="M.22.22a.75.75 0 0 1 1.06 0l14.5 14.5a.75.75 0 1 1-1.06 1.06l-3.822-3.822a29 29 0 0 1-.898-.062v2.943a1.162 1.162 0 0 1-2.265.367l-.653-1.959a2 2 0 0 0-.225-.464L5.25 10.331v-4.02L4 5.06v4.902c0 .507-.378.927-.88.995a4.6 4.6 0 0 1-1.259-.002 1.006 1.006 0 0 1-.86-.993V3.037c0-.27.106-.514.281-.694L.22 1.28a.75.75 0 0 1 0-1.06M9.216 3a37 37 0 0 1 3.157.144 2.01 2.01 0 0 1 1.569.971 16.526 16.526 0 0 1 2.028 5.506c.174.984-.417 1.89-1.31 2.208L5.971 3.142c1.01-.086 2.08-.146 3.244-.142" />
</svg>
